X:1
T:Sweeter as the Days Go By
T:Sweeter as the Days Go By
T:John Robson Sweney
T:Eliza Edmunds Hewitt, 1898
T:Public Domain Courtesy of the Cyber Hymnal™
T:Public Domain Courtesy of the Cyber Hymnal™
C:John Robson Sweney
Z:Public Domain
Z:Courtesy of the Cyber Hymnal™
%%score ( 1 2 ) ( 3 4 )
L:1/8
Q:1/4=100
M:4/4
K:D
V:1 treble 
V:2 treble 
V:3 bass 
V:4 bass 
V:1
 ([DF][EG]) | [FA]2 [FA]2 [GB][FA][DF]D | [DF]2 [CE]2 [CE]2 ([CE][DF]) | %3
w: 1.~The *|dear old sto- ry of a|Sav- ior’s love Is *|
w: 2.~The *|sun- beams shin- ing from the|liv- ing Light Are *|
w: 3.~Hope’s *|an- chor, hold- ing in the|storm- y strife, Is *|
w: 4.~The *|peace that Je- sus gives to|us a- new Is *|
 [EG][EG][Gc][GB] [GA]2 [EG]2 | [DF]6 ([DF][EG]) | [FA]2 [FA]2 [GB][FA][Ad][Ac] | %6
w: sweet- er as the days go|by; The *|glad as- sur- ance of a|
w: bright- er as the days go|by; The *|stars of prom- ise cheer- ing|
w: strong- er as the days go|by; We *|feel the throb- bings of im-|
w: deep- er as the days go|by; The *|pros- pects open- ing to the|
 [Ac]2 [GB]2 [GB]2 (ed) | [Gc][Gc][Gc][GB] [GA]2 [Ge]2 | [Fd]6 ||"^Refrain" [Fd]2 | %10
w: home a- bove Is *|sweet- er as the days go|by.||
w: sor- row’s night Are *|bright- er as the days go|by.|We’ll|
w: mor- tal life Grow *|strong- er as the days go|by.||
w: Christ- ian’s view Are *|grand- er as the days go|by.||
 [Gc]3 [Ge] [EG]2 [GB]2 | [FA]3 [Fd] [DF]2 [DF]2 | [CE]2 [EA][Ac] [^Ge][Gd][Gc][GB] | %13
w: |||
w: fill the days with|joy- ful praise, We’ll|sing as the hap- py mo- ments|
w: |||
w: |||
 !fermata!A6 !fermata![GA]2 | [Fd]3 [Fd] [Fd]2 [DF]2 | [CG]2 [DA]2 [DB]2 (ed) | %16
w: |||
w: fly; The|song of love to|Him a- bove Grows *|
w: |||
w: |||
 [Gc][Gc][Gc][GB] [GA]2 [Ge]2 | [Fd]6 |] %18
w: ||
w: sweet- er as the days go|by.|
w: ||
w: ||
V:2
 x2 | x7 D | x8 | x8 | x8 | x8 | x6 G2 | x8 | x6 || x2 | x8 | x8 | x8 | (A2 EF G2) x2 | x8 | %15
 x6 G2 | x8 | x6 |] %18
V:3
 [D,A,]2 | [D,D]2 [D,D]2 [D,D][D,D][D,A,][D,F,] | [A,,A,]2 [A,,A,]2 [A,,A,]2 A,2 | %3
w: ~|~ ~ ~ ~ ~ ~|~ ~ ~ ~|
 [A,C][A,C][A,E][A,D] [A,C]2 [C,A,]2 | [D,A,]6 [D,A,]2 | [D,D]2 [D,D]2 [D,D][D,D][F,D][F,D] | %6
w: ~ ~ ~ ~ ~ ~|~ ~|~ ~ ~ ~ ~ ~|
 [G,D]2 [G,D]2 [G,D]2 [G,B,]2 | A,A,A,[A,D] [A,C]2 [A,,A,]2 | [D,A,]6 || [D,D]2 | %10
w: ~ ~ ~ ~|~ ~ ~ ~ ~ ~|~|We’ll|
 [A,E][A,E][A,E][A,C] [A,C]2 [A,,C]2 | [D,D][D,D][D,D][D,A,] [D,A,]2 [D,A,]2 | %12
w: fill, we’ll fill the days with|joy- ful, joy- ful praise, ~|
 [E,A,]2 [E,C][E,E] [E,D][E,B,][E,E][E,D] | C2 CD !fermata!E2 [A,C]2 | %14
w: ~ ~ ~ ~ ~ ~ ~|~ mo- ments fly *|
 [D,D]3 [D,A,] [D,A,]2 [D,A,]2 | [E,A,]2 [F,A,]2 G,2 [G,B,]2 | A,A,A,[A,D] [A,C]2 [A,,A,]2 | %17
w: |||
 [D,A,]6 |] %18
w: |
V:4
 x2 | x8 | x6 A,2 | x8 | x8 | x8 | x8 | A,A,A, x5 | x6 || x2 | x8 | x8 | x8 | A,6 x2 | x8 | %15
 x4 G,2 x2 | A,A,A, x5 | x6 |] %18

